material/.icons/material/microphone-settings.svg

<svg xmlns="http://www.w3.org/2000/svg" viewBox="0 0 24 24"><path d="M19 10h-1.7c0 3-2.54 5.1-5.3 5.1S6.7 13 6.7 10H5c0 3.41 2.72 6.23 6 6.72V20h2v-3.28c3.28-.49 6-3.31 6-6.72m-4 14h2v-2h-2m-4 2h2v-2h-2m1-9a3 3 0 003-3V4a3 3 0 00-3-3 3 3 0 00-3 3v6a3 3 0 003 3M7 24h2v-2H7v2z"/></svg>

<?xml version="1.0" encoding="UTF-8"?><!DOCTYPE svg PUBLIC "-//W3C//DTD SVG 1.1//EN" "http://www.w3.org/Graphics/SVG/1.1/DTD/svg11.dtd"><svg xmlns="http://www.w3.org/2000/svg" xmlns:xlink="http://www.w3.org/1999/xlink" version="1.1" id="mdi-microphone-settings" width="24" height="24" viewBox="0 0 24 24"><path d="M19,10H17.3C17.3,13 14.76,15.1 12,15.1C9.24,15.1 6.7,13 6.7,10H5C5,13.41 7.72,16.23 11,16.72V20H13V16.72C16.28,16.23 19,13.41 19,10M15,24H17V22H15M11,24H13V22H11M12,13A3,3 0 0,0 15,10V4A3,3 0 0,0 12,1A3,3 0 0,0 9,4V10A3,3 0 0,0 12,13M7,24H9V22H7V24Z" /></svg>
